packages/foundations/assets/icons/functional/images/transportation/electric_car_14.svg

<svg width="14" height="14" viewBox="0 0 14 14" fill="none" xmlns="http://www.w3.org/2000/svg">
<g clip-path="url(#clip0_187_913)">
<path fill-rule="evenodd" clip-rule="evenodd" d="M7.70002 1.39371C8.08662 1.39371 8.40002 1.70711 8.40002 2.09371C8.40002 2.4527 8.10641 2.79313 7.70002 2.79371C6.66426 2.79521 5.62846 2.79524 4.59261 2.79382C4.52122 2.79372 4.474 2.8477 4.45786 2.9069C4.4275 3.03714 4.28159 3.69942 4.02012 4.89371L6.36472 4.89375C6.50149 4.52333 6.92132 4.19371 7.35002 4.19371C7.46835 4.19214 7.58502 4.19214 7.70002 4.19371C7.69496 3.83994 7.93872 3.49429 8.40002 3.49429C8.40002 3.49429 9.10002 3.49429 10.5 3.49429C10.85 3.49371 11.2 3.84371 11.195 4.20617L11.55 4.20743C12.0958 4.20743 12.6 4.64463 12.6 5.24371C12.6 5.94371 12.6 8.04371 12.6 11.5437C12.6 12.0895 12.1679 12.593 11.55 12.5937C10.1501 12.5953 8.75006 12.5999 7.35002 12.6074C6.80424 12.6074 6.30156 12.1595 6.30002 11.5574C6.29851 10.9614 6.29851 10.3735 6.30002 9.79371C5.49109 9.72712 4.79109 9.65386 4.20002 9.57391C4.20002 9.70411 4.20002 10.0107 4.20002 10.4937H2.45002L2.44968 8.37972C2.42121 8.29817 2.37015 8.06176 2.3626 7.99568C2.29782 7.42856 2.23456 6.86124 2.17282 6.29371H1.85379C1.59476 6.29371 1.40002 6.06878 1.40002 5.81118V5.34451C1.40002 5.08645 1.59476 4.89371 1.85379 4.89371H2.58722L3.09056 2.60609C3.23551 1.94725 3.78642 1.39477 4.52122 1.39371C5.58079 1.3922 6.64039 1.3922 7.70002 1.39371ZM11.2 5.60701H7.70002V11.207H11.2V5.60701ZM9.26529 6.58861C9.39735 6.33048 9.71366 6.22828 9.97179 6.36034C10.2084 6.4814 10.3475 6.78172 10.2001 7.06684C10.097 7.26975 9.96134 7.5347 9.79303 7.86171L9.9841 7.86078C10.364 7.8578 10.6491 8.26619 10.4455 8.64373C10.3419 8.82728 10.0434 9.35633 9.55006 10.2309C9.40758 10.4834 9.08737 10.5726 8.83484 10.4302C8.60335 10.2996 8.48748 9.99812 8.63555 9.71495C8.71567 9.57148 8.86536 9.3056 9.08462 8.91731L8.93544 8.91905C8.56588 8.92196 8.27441 8.53946 8.46393 8.15495C8.57835 7.9348 8.84547 7.41269 9.26529 6.58861ZM4.14324 6.30729C3.86072 6.24206 3.57882 6.41821 3.5136 6.70073C3.45381 6.95971 3.59684 7.21816 3.83871 7.30968L4.93013 7.56657C5.21265 7.6318 5.49455 7.45565 5.55977 7.17313C5.61956 6.91415 5.47653 6.6557 5.23466 6.56418L4.14324 6.30729Z" fill="#1A1C1F"/>
</g>
<defs>
<clipPath id="clip0_187_913">
<rect width="14" height="14" fill="white"/>
</clipPath>
</defs>
</svg>

<svg xmlns="http://www.w3.org/2000/svg" width="14" height="14" fill="none"><g clip-path="url(#a)"><path fill="#1A1C1F" fill-rule="evenodd" d="M7.7 1.394a.7.7 0 1 1 0 1.4H4.593c-.072 0-.119.054-.135.113q-.045.195-.438 1.987h2.345c.136-.37.556-.7.985-.7q.177-.003.35 0c-.005-.354.239-.7.7-.7h2.1c.35 0 .7.35.695.712l.355.001c.546 0 1.05.438 1.05 1.037v6.3c0 .545-.432 1.049-1.05 1.05q-2.1.002-4.2.013a1.06 1.06 0 0 1-1.05-1.05V9.794a41 41 0 0 1-2.1-.22v.92H2.45V8.38a3 3 0 0 1-.087-.384 319 319 0 0 1-.19-1.702h-.32c-.258 0-.453-.225-.453-.483v-.466c0-.259.195-.451.454-.451h.733l.504-2.288c.145-.659.695-1.211 1.43-1.212q1.59-.003 3.179 0m3.5 4.213H7.7v5.6h3.5zm-1.935.982a.525.525 0 0 1 .707-.229.52.52 0 0 1 .228.707l-.407.795.191-.001a.526.526 0 0 1 .461.783L9.55 10.23a.525.525 0 0 1-.914-.516l.449-.798-.15.002a.523.523 0 0 1-.471-.764q.171-.33.801-1.566m-5.122-.282A.525.525 0 0 0 3.84 7.31l1.091.257a.525.525 0 0 0 .305-1.003z" clip-rule="evenodd"/></g><defs><clipPath id="a"><path fill="#fff" d="M0 0h14v14H0z"/></clipPath></defs></svg>
